X: 1
T: On The Top Of Cork Road
M: 6/8
L: 1/8
R: jig
K: Dmaj
|:f2d dcd|BGB A2e|f2d dcd|Bcd efg|
f2d dcd|BGB A2e|Bcd Ace|fdd d2 e:|
|:fdf faf|gee efg|dcd fed|cAA A2e|
fdf faf|gee efg|Bcd Ace|fdd d2e:|
